icons/bike.svg

<svg width="24" height="24" viewBox="0 0 24 24" fill="none" xmlns="http://www.w3.org/2000/svg">
<path fill-rule="evenodd" clip-rule="evenodd" d="M15 5C15 3.89543 15.8954 3 17 3C18.1046 3 19 3.89543 19 5C19 6.10457 18.1046 7 17 7C15.8954 7 15 6.10457 15 5ZM14.1534 7.01184C14.4304 7.05484 14.6766 7.21209 14.8321 7.4453L16.5352 10H19C19.5523 10 20 10.4477 20 11C20 11.5523 19.5523 12 19 12H16C15.6656 12 15.3534 11.8329 15.1679 11.5547L13.773 9.46224L10.4971 12.0829L12.7071 14.2929C12.8946 14.4804 13 14.7348 13 15V19C13 19.5523 12.5523 20 12 20C11.4477 20 11 19.5523 11 19V15.4142L8.29289 12.7071C8.09176 12.506 7.9858 12.2287 8.00153 11.9447C8.01726 11.6607 8.15319 11.3968 8.37531 11.2191L13.3753 7.21913C13.5942 7.04404 13.8765 6.96884 14.1534 7.01184ZM5 16C3.89543 16 3 16.8954 3 18C3 19.1046 3.89543 20 5 20C6.10457 20 7 19.1046 7 18C7 16.8954 6.10457 16 5 16ZM1 18C1 15.7909 2.79086 14 5 14C7.20914 14 9 15.7909 9 18C9 20.2091 7.20914 22 5 22C2.79086 22 1 20.2091 1 18ZM19 16C17.8954 16 17 16.8954 17 18C17 19.1046 17.8954 20 19 20C20.1046 20 21 19.1046 21 18C21 16.8954 20.1046 16 19 16ZM15 18C15 15.7909 16.7909 14 19 14C21.2091 14 23 15.7909 23 18C23 20.2091 21.2091 22 19 22C16.7909 22 15 20.2091 15 18Z" fill="black"/>
</svg>

<svg
  width="24"
  height="24"
  viewBox="0 0 24 24"
  xmlns="http://www.w3.org/2000/svg"
>
  <path
    fill-rule="evenodd"
    clip-rule="evenodd"
    d="M15 5a2 2 0 1 1 4 0 2 2 0 0 1-4 0zm-.847 2.012a1 1 0 0 1 .68.433L16.534 10H19a1 1 0 1 1 0 2h-3a1 1 0 0 1-.832-.445l-1.395-2.093-3.276 2.62 2.21 2.21A1 1 0 0 1 13 15v4a1 1 0 1 1-2 0v-3.586l-2.707-2.707a1 1 0 0 1 .082-1.488l5-4a1 1 0 0 1 .778-.207zM5 16a2 2 0 1 0 0 4 2 2 0 0 0 0-4zm-4 2a4 4 0 1 1 8 0 4 4 0 0 1-8 0zm18-2a2 2 0 1 0 0 4 2 2 0 0 0 0-4zm-4 2a4 4 0 1 1 8 0 4 4 0 0 1-8 0z"
  />
</svg>
